X: 77
T:Miss Cameron's Reel. -- Balvenie
B:William Marshall's Scottish Airs, Melodies, Strathspeys, Reels &c (1822)
C:William Marshall
L:1/8
M:C|
O:Scotland
R:Reel
Z:Clark Bernst + Richard Robinson
%%Page:3 - 3
F:http://richardrobinson.tunebook.org.uk/tune/3920
%%TBL:{"version":1,"type":"tune","id":"3920"}
K:Bb
%%staves { 1 2 }
V:1
f | \
dB B/B/B ~B2 FB | ABcd egfe | dB B/B/B ~B2 FB | AFcA B2 B :|
E | \
(DE)(FB) DBFB | (EF)(GB) EBGB | (Ac)(ec) (gf)(ed) | (ed)(cB) (!trill!BA)(GF) |
(DE)(FB) DBFB | (EF)(GB) EBGB | dbag fedB | AFcA ~B2 B |]
V:2 middle=d clef=bass
L:1/4
z/ | \
BBBB | fffa | [Bb]BBB | ffBb/ :| \
z/ | \
[Bb][Bb][Bb][Bb] | eeee | ffce | ffFF | [Bb][Bb][Bb][Bb] | eeee | BBBB | ffBB/ |]

